icons/actions/24/view-task-child.svg

<?xml version="1.0"?>
<!-- Created with Inkscape (http://www.inkscape.org/) -->
<svg xmlns:dc="http://purl.org/dc/elements/1.1/" xmlns:cc="http://creativecommons.org/ns#" xmlns:rdf="http://www.w3.org/1999/02/22-rdf-syntax-ns#" xmlns:svg="http://www.w3.org/2000/svg" xmlns="http://www.w3.org/2000/svg" xmlns:sodipodi="http://sodipodi.sourceforge.net/DTD/sodipodi-0.dtd" xmlns:inkscape="http://www.inkscape.org/namespaces/inkscape" width="24" height="24" id="svg3869" version="1.1" inkscape:version="0.91 r13725" sodipodi:docname="view-task-child.svg">
  <defs id="defs3871">
    <style type="text/css" id="current-color-scheme">
      .ColorScheme-Text {
        color:#4d4d4d;
      }
      .ColorScheme-Background {
        color:#eff0f1;
      }
      .ColorScheme-Highlight {
        color:#3daee9;
      }
      .ColorScheme-ViewText {
        color:#31363b;
      }
      .ColorScheme-ViewBackground {
        color:#fcfcfc;
      }
      .ColorScheme-ViewHover {
        color:#93cee9;
      }
      .ColorScheme-ViewFocus{
        color:#3daee9;
      }
      .ColorScheme-ButtonText {
        color:#31363b;
      }
      .ColorScheme-ButtonBackground {
        color:#eff0f1;
      }
      .ColorScheme-ButtonHover {
        color:#93cee9;
      }
      .ColorScheme-ButtonFocus{
        color:#3daee9;
      }
      </style>
    <linearGradient id="linearGradient4066">
      <stop offset="0" style="stop-color:#dbc9ee;stop-opacity:1" id="stop4068"/>
      <stop offset="1" style="stop-color:#faf7fd;stop-opacity:1" id="stop4070"/>
    </linearGradient>
    <linearGradient id="linearGradient3843-5">
      <stop id="stop3845-0" style="stop-color:#5a2c8b;stop-opacity:1" offset="0"/>
      <stop id="stop3847-4" style="stop-color:#9d59cf;stop-opacity:1" offset="1"/>
    </linearGradient>
    <linearGradient id="linearGradient4290-48">
      <stop style="stop-color:#a5a5a5;stop-opacity:1;" offset="0" id="stop4292-0"/>
      <stop style="stop-color:#f5f2f5;stop-opacity:1;" offset="1" id="stop4294-0"/>
    </linearGradient>
    <inkscape:perspective sodipodi:type="inkscape:persp3d" inkscape:vp_x="0 : 12 : 1" inkscape:vp_y="0 : 1000 : 0" inkscape:vp_z="24 : 12 : 1" inkscape:persp3d-origin="12 : 8 : 1" id="perspective4146-9"/>
    <inkscape:perspective sodipodi:type="inkscape:persp3d" inkscape:vp_x="0 : 12 : 1" inkscape:vp_y="0 : 1000 : 0" inkscape:vp_z="24 : 12 : 1" inkscape:persp3d-origin="12 : 8 : 1" id="perspective4146"/>
    <clipPath clipPathUnits="userSpaceOnUse" id="clipPath4160">
      <rect style="opacity:1;fill:#f2f2f2;fill-opacity:1;stroke:none;stroke-opacity:1" id="rect4162" width="1" height="1" x="7" y="1023.3622"/>
    </clipPath>
  </defs>
  <sodipodi:namedview id="base" pagecolor="#ffffff" bordercolor="#666666" borderopacity="1.0" inkscape:pageopacity="0.0" inkscape:pageshadow="2" inkscape:zoom="22.627416" inkscape:cx="5.4926209" inkscape:cy="10.264796" inkscape:document-units="px" inkscape:current-layer="layer1" showgrid="true" fit-margin-top="0" fit-margin-left="0" fit-margin-right="0" fit-margin-bottom="0" inkscape:window-width="1366" inkscape:window-height="709" inkscape:window-x="-4" inkscape:window-y="0" inkscape:window-maximized="1" inkscape:showpageshadow="false" inkscape:snap-bbox="true" inkscape:object-nodes="true">
    <inkscape:grid type="xygrid" id="grid4132"/>
    <sodipodi:guide position="4,18" orientation="18,0" id="guide4138"/>
    <sodipodi:guide position="5,3" orientation="0,18" id="guide4140"/>
    <sodipodi:guide position="20,2.0000174" orientation="-18,0" id="guide4142"/>
    <sodipodi:guide position="2,21" orientation="0,-18" id="guide4144"/>
    <sodipodi:guide position="3,19.000017" orientation="16,0" id="guide4146"/>
    <sodipodi:guide position="2,4" orientation="0,16" id="guide4148"/>
    <sodipodi:guide position="21,20" orientation="-16,0" id="guide4150"/>
    <sodipodi:guide position="2,20" orientation="0,-16" id="guide4152"/>
  </sodipodi:namedview>
  <metadata id="metadata3874">
    <rdf:RDF>
      <cc:Work rdf:about="">
        <dc:format>image/svg+xml</dc:format>
        <dc:type rdf:resource="http://purl.org/dc/dcmitype/StillImage"/>
        <dc:title/>
      </cc:Work>
    </rdf:RDF>
  </metadata>
  <g inkscape:label="Capa 1" inkscape:groupmode="layer" id="layer1" transform="translate(-326,-532.3622)">
    <g transform="translate(-94.71429,7.57146)" id="layer1-1" inkscape:label="Capa 1">
      <path id="rect4089" transform="translate(421.71429,525.79074)" d="m 3,3 0,16 9,0 0,-1 -8,0 0,-11 14,0 0,5 1,0 0,-9 -2,0 0,3 L 15,6 15,3 7,3 7,6 5,6 5,3 3,3 Z M 14.292969,9 9.7011719,13.591797 8.5546875,12.445312 7.8476562,13.152344 9.6933594,15 9.6992188,14.992188 9.7070312,15 15,9.7070312 14.292969,9 Z" style="fill:currentColor;fill-opacity:1;stroke:none" inkscape:connector-curvature="0" class="ColorScheme-Text"/>
      <path id="rect4146" transform="translate(421.71429,525.79074)" d="m 13,13 0,1 0,5 6,0 0,-5 0,-1 -1,0 0,1 -1,0 0,-1 -2,0 0,1 -1,0 0,-1 -1,0 z m 1,2 4,0 0,3 -4,0 0,-3 z" style="fill:currentColor;fill-opacity:1;stroke:none" inkscape:connector-curvature="0" class="ColorScheme-Text"/>
    </g>
  </g>
</svg>

<svg xmlns="http://www.w3.org/2000/svg" viewBox="0 0 24 24">
  <defs id="defs3051">
    <style type="text/css" id="current-color-scheme">
      .ColorScheme-Text {
        color:#4d4d4d;
      }
      </style>
  </defs>
  <a transform="translate(1,1)">
 <path 
    style="fill:currentColor;fill-opacity:1;stroke:none" 
    d="M 3 3 L 3 19 L 12 19 L 12 18 L 4 18 L 4 7 L 18 7 L 18 12 L 19 12 L 19 3 L 17 3 L 17 6 L 15 6 L 15 3 L 7 3 L 7 6 L 5 6 L 5 3 L 3 3 z M 14.292969 9 L 9.7011719 13.591797 L 8.5546875 12.445312 L 7.8476562 13.152344 L 9.6933594 15 L 9.6992188 14.992188 L 9.7070312 15 L 15 9.7070312 L 14.292969 9 z M 13 13 L 13 14 L 13 19 L 19 19 L 19 14 L 19 13 L 18 13 L 18 14 L 17 14 L 17 13 L 15 13 L 15 14 L 14 14 L 14 13 L 13 13 z M 14 15 L 18 15 L 18 18 L 14 18 L 14 15 z "
	class="ColorScheme-Text"
    />  
 </a>
</svg>
